X:1
T:Forbes Lodge
T:Forbes Lodge
T:Alexander Walker
C:Alexander Walker
L:1/8
Q:1/4=120
M:2/2
K:D
V:1 treble 
V:1
"^Slow" Bc | d>edD F>A AB/c/ | d>ed>F (E2 E)(B/c/) | d>ed>A F>GA>=c | B>GE>C D2 D :| f | %6
 d>fa>g b>ga>f | d>fa>f e2 e<f | d>fa>g b>ga>b | d'b b/a/g/e/ d2 d>e | d>fa>g b>ga<f | %11
 g>bf>d' e2 e>g | f>d f/e/d/c/ d>A B/A/G/F/ | B,>E D/C/B,/A,/ D2- D || %14

